src/lib/packages/icons/src/assets/filled/android.svg

<svg width="24" height="24" viewBox="0 0 24 24" fill="none" xmlns="http://www.w3.org/2000/svg">
<path d="M16.82 9.68986L18.22 7.24986C18.36 7.00986 18.27 6.70987 18.04 6.56987C17.8 6.42987 17.5 6.50986 17.36 6.74986L15.93 9.22987C13.5 8.15987 10.52 8.14987 8.07003 9.22987L6.64004 6.74986C6.50004 6.50986 6.19005 6.42987 5.96005 6.56987C5.72005 6.70987 5.64005 7.00986 5.78005 7.24986L7.18002 9.68986C4.57002 11.1999 2.82003 13.8899 2.51003 16.9499C2.50003 17.0899 2.54004 17.2299 2.64004 17.3399C2.74004 17.4499 2.87003 17.5099 3.01003 17.5099H21.01C21.15 17.5099 21.29 17.4499 21.38 17.3399C21.47 17.2299 21.52 17.0899 21.51 16.9499C21.2 13.8999 19.4501 11.2099 16.8401 9.68986H16.82ZM7.87002 14.5699C7.45002 14.5699 7.11001 14.2299 7.11001 13.8099C7.11001 13.3899 7.45002 13.0599 7.87002 13.0599C8.29002 13.0599 8.62002 13.3999 8.62002 13.8099C8.62002 14.2199 8.28002 14.5699 7.87002 14.5699ZM16.13 14.5699C15.71 14.5699 15.38 14.2299 15.38 13.8099C15.38 13.3899 15.72 13.0599 16.13 13.0599C16.54 13.0599 16.89 13.3999 16.89 13.8099C16.89 14.2199 16.55 14.5699 16.13 14.5699Z" fill="currentColor"/>
</svg>

<svg xmlns="http://www.w3.org/2000/svg" width="24" height="24" fill="none"><path fill="currentColor" d="m16.82 9.69 1.4-2.44c.14-.24.05-.54-.18-.68a.493.493 0 0 0-.68.18l-1.43 2.48c-2.43-1.07-5.41-1.08-7.86 0L6.64 6.75a.496.496 0 0 0-.68-.18c-.24.14-.32.44-.18.68l1.4 2.44a9.478 9.478 0 0 0-4.67 7.26.516.516 0 0 0 .5.56h18c.14 0 .28-.06.37-.17a.56.56 0 0 0 .13-.39 9.51 9.51 0 0 0-4.67-7.26h-.02Zm-8.95 4.88a.76.76 0 0 1-.76-.76c0-.42.34-.75.76-.75s.75.34.75.75-.34.76-.75.76Zm8.26 0c-.42 0-.75-.34-.75-.76s.34-.75.75-.75.76.34.76.75-.34.76-.76.76Z"/></svg>
